!!!!SEGMENT: pl-wnifc--6808-n_krysta-jozef--wspomnienia-zmarlym-poswiecone-op-14.krn
!!!cenid: 18xx:3973
!!!COM: Krysta, Józef
!!!COM-rismID: pe50048234
!!!CDT: 1843-1910
!!!CNT:
!!!OTL: Wspomnienia zmarłym poświęcone op. 14
!!!PDT:
!!!AGN:
!!!SMS-siglum: PL-Wnifc
!!!SMS-shelfmark: 6808/n
!!!SMS-shelfwork: W
!!!SMS-variant:
!!!SMS-altvar:
!!!NIFC-rismSourceID: 1001159070
!!!NIFC-rismChildID: 1001159070
!!!NIFC-islandoraID: nifc:213606
!!!URL-pdf-islandora: https://repozytorium.nifc.pl/islandora/object/nifc%3A213606/datastream/PDF/view
!!!URL-scan: https://polish.musicsources.pl/pl/lokalizacje/galeria/druki-muzyczne/16928 @EN{Scan on Polish Music Sources Website} @PL{Skany w portalu Dziedzictwo Muzyki Polskiej w otwartym dostępie}
!!!ONB-nifc:
!!!AIN: 2 piano
!!!key: f
**kern	**kern	**dynam
*part2	*part1	*part1
*staff2	*staff1	*
*I"[fortepian]	*I"[fortepian]	*
*I'Pf	*I'Pf	*
*Ipiano	*Ipiano	*
*ICklav	*ICklav	*
*clefF4	*clefG2	*
*k[b-e-a-d-]	*k[b-e-a-d-]	*
*f:	*f:	*
*M2/4	*M2/4	*
=1	=1	=1
!	!LO:TX:a:B:t=Maestoso Andante espresivo.	!
2FF/ 2AA- 2C 2F	4c/ 4f 4a-	.
.	8f/L 8a- 8cc	.
.	8f/J 8a- 8cc	.
=2	=2	=2
2GG/ 2BB- 2C 2En	4c/ 4g 4b-	.
.	4c/ 4g 4b-	.
=3	=3	=3
2FF/ 2AA- 2C 2F	4c/ 4f 4a-	.
.	8c/L 8f 8a- 8cc	.
.	8c/J 8f 8a- 8cc	.
=4	=4	=4
2GG/ 2BB- 2C 2En	4en/ 4g	.
.	16r	.
.	16c/LL	.
.	16c/	.
.	16c/JJ	.
=5	=5	=5
2FF/ 2AA- 2C 2F	4c/ 4f 4a- 4cc	.
.	8f/L 8a- 8cc	.
.	8f/J 8a- 8cc	.
!LO:LB:g=original	!LO:LB:g=original	!
=6	=6	=6
4.EE-/ 4.E-	4.e-/ 4.ee-	.
8DD-/ 8D-	8d-/ 8dd-	.
=7	=7	=7
8.CC/L 8.C	8.c/L 8.cc	.
16BBBn/K 16BBn	16Bn/K 16bn	.
8.CC/ 8.C	8.c/ 8.cc	.
16DD-/Jk 16D-	16d-/Jk 16dd-	.
=8	=8	=8
2CC/ 2C	4c/ 4cc	.
.	8c/L 8cc	.
.	8c/J 8cc	.
=9	=9	=9
2FF/ 2AA- 2C 2F	4c/ 4f 4a- 4cc	.
.	8f/L 8a- 8cc	.
.	8f/J 8a- 8cc	.
=10	=10	=10
2GG/ 2BB- 2C 2En	4c/ 4g 4b-	.
.	4c/ 4g 4b-	.
=11	=11	=11
2FF/ 2AA- 2C 2F	4c/ 4f 4a-	.
.	8c/L 8f 8a-	.
.	8c/J 8f 8a-	.
=12	=12	=12
2GG/ 2BB- 2C 2En	4en/ 4g	.
.	16r	.
.	16c/LL	.
.	16c/	.
.	16c/JJ	.
!LO:LB:g=original	!LO:LB:g=original	!
=13	=13	=13
2FF/ 2AA- 2C 2F	4c/ 4f 4a-	.
.	8f/L 8a- 8cc	.
.	8f/J 8a- 8cc	.
=14	=14	=14
2GG/ 2BB- 2C 2En	4c/ 4g 4b-	.
.	4c/ 4g 4b-	.
=15	=15	=15
!	!LO:TX:b:i:t=espresivo	!
2FF/ 2AA- 2C 2F	4c/ 4f 4a- 4cc	.
.	8g/L	.
.	8f/J	.
=16	=16	=16
8c\	4.cc\	.
8r	.	.
4r	.	.
.	8ddn\	.
=17	=17	=17
8AAA-\L 8AA-	4a-:\ 4cc: 4ee-: 4aa-:	.
8E-\ 8A- 8c	.	.
8E-\ 8A- 8c	8a-\L 8cc 8gg	.
8E-\J 8A- 8c	8a-\J 8cc 8ff	.
=18	=18	=18
8AAA-\L 8AA-	4a-\ 4ee-	.
8E-\ 8A- 8c	.	.
8E-\ 8A- 8c	8a-\L 8ddn	.
8E-\J 8A- 8c	8a-\J 8ee-	.
!LO:LB:g=original	!LO:LB:g=original	!
=19	=19	=19
8AAA-\L 8AA-	8a-\L 8ff	.
8E-\ 8A- 8c	8a-\ 8ee-	.
8E-\ 8A- 8c	8a-\ 8ddn	.
8E-\J 8A- 8c	8a-\J 8ee-	.
=20	=20	=20
8AAA-\L 8AA-	4a-\ 4cc	.
8E-\ 8A- 8c	.	.
8E-\ 8A- 8c	8r	.
8E-\J 8A- 8c	8cc\	.
=21	=21	=21
.	(8qqcc/	.
8EE-\L 8E-	2cc\) 2ee-	.
8E-\ 8G 8d-	.	.
8E-\ 8G 8d-	.	.
8E-\J 8G 8d-	.	.
=22	=22	=22
8EE-\L 8E-	4.b-\	.
8E-\ 8G 8d-	.	.
8E-\ 8G 8d-	.	.
8E-\J 8G 8d-	8e-/	.
!LO:LB:g=original	!LO:LB:g=original	!
=23	=23	=23
8EE-\L 8E-	8cc\L	.
8E-\ 8G 8d-	8b-\	.
8E-\ 8G 8d-	8an\	.
8E-\J 8G 8d-	8b-\J	.
=24	=24	=24
8AAA-\L 8AA-	2ee-\	.
8E-\ 8A- 8c	.	.
8E-\ 8A- 8c	.	.
8E-\J 8A- 8c	.	.
=25	=25	=25
8AAA-\L 8AA-	4a-:\ 4cc: 4ee-: 4aa-:	.
8E-\ 8A- 8c	.	.
8E-\ 8A- 8c	8a-\L 8cc 8gg	.
8E-\J 8A- 8c	8a-\J 8cc 8ff	.
=26	=26	=26
8AAA-\L 8AA-	4a-\ 4ee-	.
8E-\ 8A- 8c	.	.
8E-\ 8A- 8c	8ddn\L	.
8E-\J 8A- 8c	8a-\J 8ee-	.
=27	=27	=27
8AAA-\L 8AA-	8a-\L 8ff	.
8E-\ 8A- 8c	8a-\ 8ee-	.
8E-\ 8A- 8c	8a-\ 8ddn	.
8E-\J 8A- 8c	8a-\J 8ee-	.
!LO:LB:g=original	!LO:LB:g=original	!
=28	=28	=28
8AAA-\L 8AA-	4.a-\ 4.cc	.
8E-\ 8A- 8c	.	.
8E-\ 8A- 8c	.	.
8E-\J 8A- 8c	8cc\	.
=29	=29	=29
8EE-\L 8E-	2ee-\	.
8E-\ 8G 8d-	.	.
8E-\ 8G 8d-	.	.
8E-\J 8G 8d-	.	.
=30	=30	=30
8EE-\L 8E-	4.b-\	.
8E-\ 8G 8d-	.	.
8E-\ 8G 8d-	.	.
8E-\J 8G 8d-	8e-/	.
=31	=31	=31
8EE-\L 8E-	8.e-/L	.
8E-\ 8G 8d-	.	.
.	16e-/Jk	.
8E-\ 8G 8d-	8.cc\L	.
8E-\Jyy 8G 8d-	.	.
.	16b-\Jk	.
=32	=32	=32
8AAA-\L 8AA-	2a-/	.
8E-\ 8A- 8c	.	.
8E-\ 8A- 8c	.	.
8E-\J 8A- 8c	.	.
!LO:LB:g=original	!LO:LB:g=original	!
=33	=33	=33
8AAA-\L 8AA-	4r	.
8E-\ 8A- 8c	.	.
8E-\ 8A- 8c	8r	.
8E-\J 8A- 8c	16cc\LL	.
.	16cc\JJ	.
=34	=34	=34
.	8qqcc/	.
8CC\L 8C	4.dd-\	.
8En\ 8G 8B- 8c	.	.
8E\J 8G 8B- 8c	.	.
8r	16r	.
.	16cc\	.
=35	=35	=35
.	8qqcc/	.
8CC\L 8C	4.dd-\	.
8En\ 8G 8B- 8c	.	.
8E\J 8G 8B- 8c	.	.
8r	16r	.
.	16cc\	.
=36	=36	=36
8FF\L 8F	16cc\LL	.
.	16dd-\	.
8F\J 8A- 8c	16ddn\	.
.	16ee-\	.
8FF\L 8F	16een\	.
.	16ff\	.
8F\J 8A- 8c	16ff\	.
.	16gg\JJ	.
!LO:LB:g=original	!LO:LB:g=original	!
=37	=37	=37
.	8qqgg/	.
8FF\L 8F	4.aa-\	.
8F\ 8A- 8c	.	.
8F\ 8A- 8c	.	.
8F\J 8A- 8c	8r	.
=38	=38	=38
.	8qqgg/	.
8CC\L 8C	4.aa-\	.
8En\ 8G 8B- 8c	.	.
8E\J 8G 8B- 8c	.	.
8r	16r	.
.	16gg\	.
=39	=39	=39
.	8qqgg/	.
8CC\L 8C	4.aa-\	.
8En\ 8G 8B- 8c	.	.
8E\J 8G 8B- 8c	.	.
8r	16r	.
.	16gg\	.
=40	=40	=40
8FF\L 8F	16dd-\LL	.
.	16cc\	.
8F\J 8A- 8c	16bn\	.
.	16b-X\	.
8FF\L 8F	16a-\	.
.	16cc\	.
8F\J 8A- 8c	16f\	.
.	16cc\JJ	.
=41	=41	=41
8FF\L 8F	4.c/	.
8F\ 8A- 8c	.	.
8F\ 8A- 8c	.	.
8F\J 8A- 8c	8c/	.
!LO:LB:g=original	!LO:LB:g=original	!
=42	=42	=42
.	8qqcc/	.
8CC\L 8C	4.dd-\	.
8En\ 8G 8B- 8c	.	.
8E\J 8G 8B- 8c	.	.
8r	16r	.
.	16cc\	.
=43	=43	=43
.	8qqcc/	.
8CC\L 8C	4.dd-\	.
8En\ 8G 8B- 8c	.	.
8E\J 8G 8B- 8c	.	.
8r	16r	.
.	16cc\	.
=44	=44	=44
8FF\L 8F	16cc\LL	.
.	16dd-\	.
8F\J 8A- 8c	16ddn\	.
.	16ee-\	.
8FF\L 8F	16ff\	.
.	16gg\	.
8F\J 8A- 8c	16aa-\	.
.	16bb-\JJ	.
=45	=45	=45
8FF\L 8F	4.ccc\	.
8F\ 8A- 8c	.	.
8F\ 8A- 8c	.	.
8F\J 8A- 8c	8ccc\	.
=46	=46	=46
.	8qqccc/	.
8CC\L 8C	4.ddd-\	.
8En\ 8G 8B- 8c	.	.
8E\J 8G 8B- 8c	.	.
8r	16r	.
.	16ccc\	.
!LO:PB:g=original	!LO:PB:g=original	!
=47	=47	=47
.	8qqccc/	.
8CC\L 8C	4.ddd-\	.
8En\ 8G 8B- 8c	.	.
8E\J 8G 8B- 8c	.	.
8r	16r	.
.	16ccc\	.
=48	=48	=48
8FF\L	4.ff\	.
8AA-\	.	.
8C\	.	.
8F\J	8een\	.
=49	=49	=49
4.FF\ 4.AA- 4.C 4.F	8ff\L	.
.	8cc\	.
.	8dd-\	.
8r	8ddn\J	.
=50	=50	=50
8AA-\L	4.ee-:\ 4.aa-: 4.ccc: 4.eee-:	.
8E-\	.	.
8A-\	.	.
8c\J	8ee-\ 8ddd-	.
=51	=51	=51
8AA-\L	8ee-\L 8ccc	.
8E-\	8ee-\ 8bb-	.
8A-\	8ee-\ 8aa-	.
8c\J	8ee-\J 8gg	.
!LO:LB:g=original	!LO:LB:g=original	!
=52	=52	=52
8DD-\L 8D-	4een\ 4gg	.
8F\	.	.
8B-\	16r	.
.	16ff\LL	.
8d-\J	16een\	.
.	16gg\JJ	.
=53	=53	=53
8DD-\L 8D-	4.ff\	.
8F\	.	.
8B-\	.	.
8d-\J	8ff\	.
=54	=54	=54
8EE-\L 8E-	4.ee-:\ 4.gg: 4.bb-: 4.eee-:	.
8E-\	.	.
8G\	.	.
8B-\J	8r	.
=55	=55	=55
8d-\L	8r	.
8B-\	8ee-\L 8bb-	.
8G\	8ee-\ 8aan	.
8E-\J	8ee-\J 8bb-	.
=56	=56	=56
8AAA-\L 8AA-	4.ee-\ 4.aa- 4.ccc	.
8E-\	.	.
8A-\	.	.
8c\J	8ee-\ 8aa- 8ccc	.
!LO:LB:g=original	!LO:LB:g=original	!
=57	=57	=57
8e-\L	4.ee-:\ 4.aa-: 4.ccc: 4.eee-:	.
8c\	.	.
8A-\	.	.
8E-\J	8r	.
=58	=58	=58
8AA-\L	4.ee-:\ 4.aa-: 4.ccc: 4.eee-:	.
8E-\	.	.
8A-\	.	.
8c\J	8ee-\ 8ddd-	.
=59	=59	=59
8e-\L	8ee-\L 8ccc	.
8c\	8ee-\ 8bb-	.
8A-\	8ee-\ 8aa-	.
8E-\J	8ee-\J 8gg	.
=60	=60	=60
8DD-\L 8D-	4een\ 4gg	.
8F\	.	.
8B-\	16r	.
.	16ff\LL	.
8d-\J	16ee\	.
.	16gg\JJ	.
=61	=61	=61
8DD-\L 8D-	4.ff\	.
8F\	.	.
8B-\	.	.
8d-\J	8ff\	.
!LO:LB:g=original	!LO:LB:g=original	!
=62	=62	=62
8EE-\L 8E-	4.ee-\	.
8E-\	.	.
8G\	.	.
8B-\J	8ee-\	.
=63	=63	=63
8d-\L	8ddn\L	.
8B-\	8ee-\	.
8.G\J	8.ccc\	.
16r	16bb-\Jk	.
=64	=64	=64
8AAA-\L 8AA-	2aa-\	.
8E-\ 8A- 8c	.	.
8E-\ 8A- 8c	.	.
8E-\J 8A- 8c	.	.
=65	=65	=65
8C\L	4r	.
8E-\ 8A- 8c	.	.
8E-\ 8A- 8c	8r	.
8E-\J 8A- 8c	16cc\LL 16ccc	.
.	16cc\JJ 16ccc	.
=66	=66	=66
8C\L	4.cc\ 4.ccc	.
8En\ 8G 8B- 8c	.	.
8E\ 8G 8B- 8c	.	.
8E\J 8G 8B- 8c	8cc\ 8ccc	.
!LO:LB:g=original	!LO:LB:g=original	!
=67	=67	=67
8C\L	8cc\L 8ccc	.
8En\ 8G 8B- 8c	8cc\ 8ccc	.
8E\ 8G 8B- 8c	8ddn\ 8dddn	.
8E\J 8G 8B- 8c	8een\J 8eeen	.
=68	=68	=68
8FF\L 8F	8ff\L 8fff	.
8F\ 8A- 8c	8gg\ 8ggg	.
8F\ 8A- 8c	8aa-\ 8aaa-	.
8F\J 8A- 8c	8bb-\J 8bbb-	.
=69	=69	=69
*	*8va	*
8FF\L 8F	4.ccc\ 4.cccc	.
8F\ 8A- 8c	.	.
8F\ 8A- 8c	.	.
8F\J 8A- 8c	8ccc\ 8cccc	.
=70	=70	=70
8CC\L 8C	4.ddd-\ 4.dddd-	.
8En\ 8G 8B- 8c	.	.
8E\ 8G 8B- 8c	.	.
8E\J 8G 8B- 8c	8ccc\ 8cccc	.
=71	=71	=71
8CC\L 8C	4.ddd-\ 4.dddd-	.
8En\ 8G 8B- 8c	.	.
8E\ 8G 8B- 8c	.	.
8E\J 8G 8B- 8c	8ccc\ 8cccc	.
*	*X8va	*
!LO:LB:g=original	!LO:LB:g=original	!
=72	=72	=72
*	*8va	*
8FF\L 8F	8bb-\L 8ddd- 8bbb-	.
8F\ 8A- 8c	8aa-\ 8aaa-	.
8F\ 8A- 8c	8gg\ 8ggg	.
8F\J 8A- 8c	8aa-\J 8aaa-	.
=73	=73	=73
8FF\L 8F	4.ff\ 4.fff	.
8F\ 8A- 8c	.	.
8F\ 8A- 8c	.	.
8F\J 8A- 8c	8cc/ 8ccc	.
*	*X8va	*
=74	=74	=74
8CC\L 8C	4.cc\ 4.ccc	.
8En\ 8G 8B- 8c	.	.
8E\ 8G 8B- 8c	.	.
8E\J 8G 8B- 8c	8cc\ 8ccc	.
=75	=75	=75
8C\L	8cc\L 8ccc	.
8En\ 8G 8B- 8c	8cc\ 8ccc	.
8E\ 8G 8B- 8c	8ddn\ 8dddn	.
8E\J 8G 8B- 8c	8een\J 8eeen	.
=76	=76	=76
8FF\L 8F	8ff\L 8fff	.
8F\ 8A- 8c	8gg\ 8ggg	.
8F\ 8A- 8c	8aa-\ 8aaa-	.
8F\J 8A- 8c	8bb-\J 8bbb-	.
!LO:LB:g=original	!LO:LB:g=original	!
=77	=77	=77
*	*8va	*
8FF\L 8F	4.ccc\ 4.cccc	.
8F\ 8A- 8c	.	.
8F\ 8A- 8c	.	.
8F\J 8A- 8c	8ccc\ 8cccc	.
=78	=78	=78
8CC\L 8C	4.ddd-\ 4.dddd-	.
8En\ 8G 8B- 8c	.	.
8E\ 8G 8B- 8c	.	.
8E\J 8G 8B- 8c	8ccc\ 8cccc	.
=79	=79	=79
8CC\L 8C	4.ddd-\ 4.dddd-	.
8En\ 8G 8B- 8c	.	.
8E\ 8G 8B- 8c	.	.
8E\J 8G 8B- 8c	8ccc\ 8cccc	.
*	*X8va	*
=80	=80	=80
8FF\L	4.ff\ 4.fff	.
8AA-\	.	.
8C\	.	.
8F\J	8een\ 8eeen	.
=81	=81	=81
4.FF\ 4.AA- 4.C 4.F	8ff\L 8fff	.
.	8cc\ 8ccc	.
.	8dd-\ 8ddd-	.
8r	8ddn\J 8dddn	.
!LO:LB:g=original	!LO:LB:g=original	!
=82	=82	=82
8AA-\L	4.ee-:\ 4.aa-: 4.ccc: 4.eee-:	.
8E-\	.	.
8A-\	.	.
8c\J	8ee-\ 8ddd-	.
=83	=83	=83
8AA-\L	8ee-\L 8ccc	.
8E-\	8ee-\ 8bb-	.
8A-\	8ee-\ 8aa-	.
8c\J	8ee-\J 8gg	.
=84	=84	=84
8DD-\L 8D-	4een\ 4gg	.
8F\	.	.
8B-\	16r	.
.	16ff\LL	.
8d-\J	16een\	.
.	16gg\JJ	.
=85	=85	=85
8DD-\L 8D-	4.ff\	.
8F\	.	.
8B-\	.	.
8d-\J	8ff\	.
=86	=86	=86
8EE-\L 8E-	4.ee-:\ 4.gg: 4.bb-: 4.eee-:	.
8E-\	.	.
8G\	.	.
8B-\J	8r	.
!LO:LB:g=original	!LO:LB:g=original	!
=87	=87	=87
8d-\L	8r	.
8B-\	8ee-\L 8bb-	.
8G\	8ee-\ 8aan	.
8E-\J	8ee-\J 8bb-	.
=88	=88	=88
8AAA-\L 8AA-	4.ee-\ 4.aa- 4.ccc	.
8E-\	.	.
8A-\	.	.
8c\J	8ee-\ 8aa- 8ccc	.
=89	=89	=89
8e-\L	4.ee-:\ 4.aa-: 4.ccc: 4.eee-:	.
8c\	.	.
8A-\	.	.
8E-\J	8r	.
=90	=90	=90
8FFF\L 8AA-	4.ee-\ 4.aa- 4.ccc 4.eee-	.
8E-\	.	.
8A-\	.	.
8c\J	8ee-\ 8ddd-	.
=91	=91	=91
8e-\L	8ee-\L 8ccc	.
8c\	8ee-\ 8bb-	.
8A-\	8ee-\ 8aa-	.
8E-\J	8ee-\J 8gg	.
!LO:LB:g=original	!LO:LB:g=original	!
=92	=92	=92
8DD-\L 8D-	4een\ 4gg	.
8F\	.	.
8B-\	16r	.
.	16ff\LL	.
8d-\J	16een\	.
.	16gg\JJ	.
=93	=93	=93
8DD-\L 8D-	4.ff\	.
8F\	.	.
8B-\	.	.
8d-\J	16r	.
.	16ff\	.
=94	=94	=94
8EE-\L 8E-	4.ee-\	.
8E-\	.	.
8G\	.	.
8B-\J	16r	.
.	16ee-\	.
=95	=95	=95
8d-\L	8ddn\L	.
8B-\	8ee-\	.
8G\	8ccc\	.
8E-\J	8bb-\J	.
=96	=96	=96
2C\ 2E- 2A- 2c	4aa-\	.
.	8ccc\L	pp
.	8eee-\J	.
=97	=97	=97
*	*8va	*
!	!LO:TX:b:i:t=Fine.	!
2AAA-/ 2AA-	2aaa-\ 2aaaa-	.
*	*X8va	*
==	==	==
*-	*-	*-
!!!RDF**kern: > = above
!!!RDF**kern: < = below
!!!system-decoration: [(s1,s2)]
!!!ENC: Solarz Mateusz
!!!END: 2022-08-03
!!!ENC: Julita Ruszuk
!!!END: 2022-09-08
!!!YEC: Copyright 2022 Narodowy Instytut Fryderyka Chopina (https://polishscores.org)
!!!YEM: License CC-BY-4.0 (https://creativecommons.org/licenses/by/4.0)
